X: 3
T: Return From Fingal
Z: ceolachan
S: https://thesession.org/tunes/851#setting14019
R: hornpipe
M: 4/4
L: 1/8
K: Edor
BG/F/ E/F/G/A/ | BG/F/ E2 | A/G/F/A/ dA | BA B/c/d/e/ |BG/F/ E/F/G/A/ | BG/F/ E2 | A/G/F/A/ dA | FE E2 ||fe ed/c/ | BA dA | BA dA | BA B/c/d/e/ |fe ed/c/ | BA d2 | A/G/F/A/ dG | FE E2 |]B2 GF EFGA | B2 GF E4 | AGFA d2 A2 | B2 A2 Bcde |B2 GF EFGA | B2 GF E4 | AGFA d2 A2 |F2 E2 E4 ||f2 e2 e2 dc | B2 A2 d2 A2 |B2 A2 d2 A2 | B2 A2 Bcde |f2 e2 e2 dc | B2 A2 d4 | AGFA d2 G2 | F2 E2 E4 |]
